X: 40911
T: Trip Note
R: jig
M: 6/8
K: Fmajor
|:A2B AGF|G2A GFE|F2F GFE|FEF c2B|
A2B AGF|G2A GFE|F2F GFE|1 F3 C3:|2 F2F FAc||
d2d d2d|c2c A2B|c2c A2G|F2F FAc|
d2d f2d|c2c AGF|G2A GFG|c2c FAc|
d2d d2d|c2c A2B|c2c A2G|F2F FGA|
F2F FGA|F2F FGA|B2A G2F|c2c c2B||

